!! Example 2: "Our Bondage Here Shall End"
!! from William H. Tallmadge, "Folk Organum: A Study of Origins" in
!! "American Music" Vol. 2, No. 3 (1984) p.51
**kern	**kern
*M4/4	*M4/4
{4.b	{4.b
16a	16a
16g}	16g}
=1	=1
4b	4b
4g	4g
4g	4g
4g	4g
=2	=2
{16e	{16e
[8.d	[8.d
4d}]	4d}]
{8e	{8e
8g}	8g}
4g	4g
=3	=3
2d	2a
4d	4a
4e	4b
=4	=4
2d	2a
2g	{4.b
.	16a
.	16g}
=5	=5
4g	4b
4g	4g
4g	4g
4g	4g
=6	=6
{16e	{16e
[8.d	[8.d
4d}]	4d}]
4G	4g
4A	4a
=7	=7
2.B	2.b
{8d	{8d
8g}	8g}
=8	=8
4g	4g
4g	4g
4g	{8g
.	8a}
4g	4dd
=9	=9
2g	2dd
4dd	4dd
4dd	4dd
=10	=10
4g	4ee
4g	4dd
4g	{8dd
.	8b}
4g	4a
=11	=11
{16e	2b
[8.d	.
4d}]	.
2g	4..dd
.	16b
=12	=12
4g	4g
4g	4dd
4g	4dd
4g	4dd
=13	=13
{16e	{16b
[8.d	[8.a
4d}]	4a}]
{8e	{8e
8g}	8g}
4g	4g
=14	=14
2a	2a
4d	4a
4d	4b
=15	=15
{4..d	2a
16g}	.
2g	{4.b
.	16a
.	16g}
=16	=16
4g	4dd
4b	4dd
4g	4dd
4g	4dd
=17	=17
{16e	{16b
[8.d	[8.a
4d}]	4a}]
4G	{16e
.	8.g}
4A	4a
=18	=18
2B	2g
==	==
*-	*-
